svg/icons/src/icon-health-money-scale.svg

<?xml version="1.0" encoding="UTF-8"?>
<svg width="32px" height="32px" viewBox="0 0 32 32" version="1.1" xmlns="http://www.w3.org/2000/svg" xmlns:xlink="http://www.w3.org/1999/xlink">
    <!-- Generator: Sketch 52.5 (67469) - http://www.bohemiancoding.com/sketch -->
    <title>icon-health-money-scale</title>
    <desc>Created with Sketch.</desc>
    <g id="icon-health-money-scale" stroke="none" stroke-width="1" fill="none" fill-rule="evenodd">
        <path d="M31.0877231,28.8736659 L1.83502394,18.487174 C1.37959556,18.31793 0.864691476,18.3986945 0.488672704,18.698354 C0.112653933,18.9980134 -0.0658003366,19.4698048 0.0220574012,19.9319757 C0.109915139,20.3941466 0.450374344,20.7745736 0.912276925,20.9267013 L14.8330758,25.8732681 C14.9350075,25.9095864 15.0126271,25.9907894 15.0417457,26.0915713 C15.0708643,26.1923531 15.0479418,26.3004615 14.9801217,26.3822062 L11.1555782,30.9431744 C10.9924361,31.1377361 10.9598899,31.4051718 11.0719022,31.6307478 C11.1839145,31.8563239 11.4205765,31.9999467 11.6803568,32 L20.314247,32 C20.5740273,31.9999467 20.8106893,31.8563239 20.9227016,31.6307478 C21.034714,31.4051718 21.0021677,31.1377361 20.8390256,30.9431744 L18.0802279,27.6519548 C17.9850548,27.5385462 17.9801204,27.3779843 18.0681626,27.2593606 C18.1562048,27.140737 18.3156232,27.093155 18.4579606,27.1430167 L30.1649761,31.3131932 C30.6204044,31.4824372 31.1353085,31.4016727 31.5113273,31.1020133 C31.8873461,30.8023538 32.0658003,30.3305625 31.9779426,29.8683916 C31.8900849,29.4062206 31.5496257,29.0257937 31.0877231,28.8736659 Z" id="Path" fill="#2333FF"></path>
        <path d="M32,15.16 C32,14.7844464 31.6955536,14.48 31.32,14.48 L28.6,14.48 C28.2244464,14.48 27.92,14.1755536 27.92,13.8 L27.92,11.08 C27.92,10.7044464 27.6155536,10.4 27.24,10.4 L23.16,10.4 C22.7844464,10.4 22.48,10.7044464 22.48,11.08 L22.48,13.8 C22.48,14.1755536 22.1755536,14.48 21.8,14.48 L19.08,14.48 C18.7044464,14.48 18.4,14.7844464 18.4,15.16 L18.4,19.24 C18.4,19.6155536 18.7044464,19.92 19.08,19.92 L21.8,19.92 C22.1755536,19.92 22.48,20.2244464 22.48,20.6 L22.48,23.32 C22.48,23.6955536 22.7844464,24 23.16,24 L27.24,24 C27.6155536,24 27.92,23.6955536 27.92,23.32 L27.92,20.6 C27.92,20.2244464 28.2244464,19.92 28.6,19.92 L31.32,19.92 C31.6955536,19.92 32,19.6155536 32,19.24 L32,15.16 Z" id="Path" fill="#2333FF"></path>
        <path d="M8.8,17.6 C13.6601058,17.6 17.6,13.6601058 17.6,8.8 C17.6,3.9398942 13.6601058,2.95917137e-16 8.8,0 C3.9398942,-2.95917137e-16 5.95191301e-16,3.9398942 0,8.8 C0.00596761337,13.6576318 3.94236822,17.5940324 8.8,17.6 Z M7.51384615,3.79076923 C7.6717463,3.75907782 7.78517717,3.62012501 7.78461538,3.45907692 L7.78461538,3.04615385 C7.78461538,2.48537241 8.23921856,2.03076923 8.8,2.03076923 C9.36078144,2.03076923 9.81538462,2.48537241 9.81538462,3.04615385 L9.81538462,3.38461538 C9.81538462,3.57154253 9.96691901,3.72307692 10.1538462,3.72307692 L10.8307692,3.72307692 C11.3915507,3.72307692 11.8461538,4.1776801 11.8461538,4.73846154 C11.8461538,5.29924298 11.3915507,5.75384615 10.8307692,5.75384615 L8.0784,5.75384615 C7.69410133,5.75241869 7.36306777,6.02440977 7.28992892,6.40168714 C7.21679006,6.7789645 7.42220679,7.15495165 7.7792,7.29723077 L10.5748923,8.41550769 C11.7354938,8.87800209 12.4540085,10.0484128 12.3411787,11.2926662 C12.2283489,12.5369195 11.3110183,13.5589906 10.0861538,13.8051692 C9.9282537,13.8368606 9.81482283,13.9758135 9.81538462,14.1368615 L9.81538462,14.5538462 C9.81538462,15.1146276 9.36078144,15.5692308 8.8,15.5692308 C8.23921856,15.5692308 7.78461538,15.1146276 7.78461538,14.5538462 L7.78461538,14.2153846 C7.78461538,14.0284575 7.63308099,13.8769231 7.44615385,13.8769231 L6.76923077,13.8769231 C6.20844933,13.8769231 5.75384615,13.4223199 5.75384615,12.8615385 C5.75384615,12.300757 6.20844933,11.8461538 6.76923077,11.8461538 L9.5216,11.8461538 C9.90522475,11.8458291 10.2348262,11.5737078 10.3077746,11.1970826 C10.3807231,10.8204573 10.1765604,10.4449515 9.8208,10.3014154 L7.02510769,9.18449231 C5.86329244,8.72267493 5.1436728,7.55162676 5.25655371,6.3064971 C5.36943463,5.06136744 6.28792058,4.03882659 7.51384615,3.79347692 L7.51384615,3.79076923 Z" id="Shape" fill="#2333FF" fill-rule="nonzero"></path>
    </g>
</svg>

<svg width="32" height="32" xmlns="http://www.w3.org/2000/svg"><g fill="#2333FF" fill-rule="evenodd"><path d="M31.088 28.874L1.835 18.487a1.391 1.391 0 0 0-1.346.211c-.376.3-.555.772-.467 1.234.088.462.428.843.89.995l13.921 4.946c.102.037.18.118.209.219.029.1.006.208-.062.29l-3.824 4.561a.63.63 0 0 0-.084.688c.112.225.349.369.608.369h8.634c.26 0 .497-.144.609-.37a.63.63 0 0 0-.084-.687l-2.759-3.291a.315.315 0 0 1-.012-.393.345.345 0 0 1 .39-.116l11.707 4.17c.455.17.97.089 1.346-.211.376-.3.555-.771.467-1.234a1.314 1.314 0 0 0-.89-.994zM32 15.16a.68.68 0 0 0-.68-.68H28.6a.68.68 0 0 1-.68-.68v-2.72a.68.68 0 0 0-.68-.68h-4.08a.68.68 0 0 0-.68.68v2.72a.68.68 0 0 1-.68.68h-2.72a.68.68 0 0 0-.68.68v4.08c0 .376.304.68.68.68h2.72a.68.68 0 0 1 .68.68v2.72c0 .376.304.68.68.68h4.08a.68.68 0 0 0 .68-.68V20.6a.68.68 0 0 1 .68-.68h2.72a.68.68 0 0 0 .68-.68v-4.08z"/><path d="M8.8 17.6A8.8 8.8 0 1 0 0 8.8a8.81 8.81 0 0 0 8.8 8.8zM7.514 3.79a.337.337 0 0 0 .27-.33v-.414a1.015 1.015 0 0 1 2.031 0v.339c0 .187.152.338.339.338h.677a1.015 1.015 0 1 1 0 2.03H8.078a.8.8 0 0 0-.299 1.544l2.796 1.119a2.823 2.823 0 0 1-.489 5.39.337.337 0 0 0-.27.33v.418a1.015 1.015 0 0 1-2.031 0v-.339a.338.338 0 0 0-.339-.338H6.77a1.015 1.015 0 0 1 0-2.03h2.753A.801.801 0 0 0 9.82 10.3L7.025 9.184a2.823 2.823 0 0 1 .489-5.39V3.79z" fill-rule="nonzero"/></g></svg>
